svg/user/IDcard_line.svg

<?xml version="1.0" encoding="UTF-8"?>
<svg width="24px" height="24px" viewBox="0 0 24 24" version="1.1" xmlns="http://www.w3.org/2000/svg" xmlns:xlink="http://www.w3.org/1999/xlink">
    <title>IDcard_line</title>
    <g id="页面-1" stroke="none" stroke-width="1" fill="none" fill-rule="evenodd">
        <g id="User" transform="translate(-624.000000, 0.000000)">
            <g id="IDcard_line" transform="translate(624.000000, 0.000000)">
                 <path d="M24,0 L24,24 L0,24 L0,0 L24,0 Z M12.5934901,23.257841 L12.5819402,23.2595131 L12.5108777,23.2950439 L12.4918791,23.2987469 L12.4918791,23.2987469 L12.4767152,23.2950439 L12.4056548,23.2595131 C12.3958229,23.2563662 12.3870493,23.2590235 12.3821421,23.2649074 L12.3780323,23.275831 L12.360941,23.7031097 L12.3658947,23.7234994 L12.3769048,23.7357139 L12.4804777,23.8096931 L12.4953491,23.8136134 L12.4953491,23.8136134 L12.5071152,23.8096931 L12.6106902,23.7357139 L12.6232938,23.7196733 L12.6232938,23.7196733 L12.6266527,23.7031097 L12.609561,23.275831 C12.6075724,23.2657013 12.6010112,23.2592993 12.5934901,23.257841 L12.5934901,23.257841 Z M12.8583906,23.1452862 L12.8445485,23.1473072 L12.6598443,23.2396597 L12.6498822,23.2499052 L12.6498822,23.2499052 L12.6471943,23.2611114 L12.6650943,23.6906389 L12.6699349,23.7034178 L12.6699349,23.7034178 L12.678386,23.7104931 L12.8793402,23.8032389 C12.8914285,23.8068999 12.9022333,23.8029875 12.9078286,23.7952264 L12.9118235,23.7811639 L12.8776777,23.1665331 C12.8752882,23.1545897 12.8674102,23.1470016 12.8583906,23.1452862 L12.8583906,23.1452862 Z M12.1430473,23.1473072 C12.1332178,23.1423925 12.1221763,23.1452606 12.1156365,23.1525954 L12.1099173,23.1665331 L12.0757714,23.7811639 C12.0751323,23.7926639 12.0828099,23.8018602 12.0926481,23.8045676 L12.108256,23.8032389 L12.3092106,23.7104931 L12.3186497,23.7024347 L12.3186497,23.7024347 L12.3225043,23.6906389 L12.340401,23.2611114 L12.337245,23.2485176 L12.337245,23.2485176 L12.3277531,23.2396597 L12.1430473,23.1473072 Z" id="MingCute" fill-rule="nonzero"></path>
                <path d="M4,4 C2.89543,4 2,4.89543 2,6 L2,18 C2,19.1046 2.89543,20 4,20 L20,20 C21.1046,20 22,19.1046 22,18 L22,6 C22,4.89543 21.1046,4 20,4 L4,4 Z M4,6 L20,6 L20,18 L4,18 L4,6 Z M10.25,9.75 C10.25,10.7165 9.4665,11.5 8.5,11.5 C7.5335,11.5 6.75,10.7165 6.75,9.75 C6.75,8.7835 7.5335,8 8.5,8 C9.4665,8 10.25,8.7835 10.25,9.75 Z M5,14.5 C5,13.1193 6.11929,12 7.5,12 L9.5,12 C10.8807,12 12,13.1193 12,14.5 L12,15 C12,15.5523 11.5523,16 11,16 C10.4477,16 10,15.5523 10,15 L10,14.5 C10,14.2239 9.77614,14 9.5,14 L7.5,14 C7.22386,14 7,14.2239 7,14.5 L7,15 C7,15.5523 6.55228,16 6,16 C5.44772,16 5,15.5523 5,15 L5,14.5 Z M13,11 C13,10.4477 13.4477,10 14,10 L16,10 C16.5523,10 17,10.4477 17,11 C17,11.5523 16.5523,12 16,12 L14,12 C13.4477,12 13,11.5523 13,11 Z M14,13 C13.4477,13 13,13.4477 13,14 C13,14.5523 13.4477,15 14,15 L18,15 C18.5523,15 19,14.5523 19,14 C19,13.4477 18.5523,13 18,13 L14,13 Z" id="形状" fill="#09244B"></path>
            </g>
        </g>
    </g>
</svg>

<svg xmlns="http://www.w3.org/2000/svg" width="24" height="24"><g fill="none" fill-rule="evenodd"><path d="M24 0v24H0V0h24ZM12.593 23.258l-.011.002-.071.035-.02.004-.014-.004-.071-.035c-.01-.004-.019-.001-.024.005l-.004.01-.017.428.005.02.01.013.104.074.015.004.012-.004.104-.074.012-.016.004-.017-.017-.427c-.002-.01-.009-.017-.017-.018Zm.265-.113-.013.002-.185.093-.01.01-.003.011.018.43.005.012.008.007.201.093c.012.004.023 0 .029-.008l.004-.014-.034-.614c-.003-.012-.01-.02-.02-.022Zm-.715.002a.023.023 0 0 0-.027.006l-.006.014-.034.614c0 .012.007.02.017.024l.015-.002.201-.093.01-.008.004-.011.017-.43-.003-.012-.01-.01-.184-.092Z"/><path fill="#09244B" d="M4 4a2 2 0 0 0-2 2v12a2 2 0 0 0 2 2h16a2 2 0 0 0 2-2V6a2 2 0 0 0-2-2H4Zm0 2h16v12H4V6Zm6.25 3.75a1.75 1.75 0 1 1-3.5 0 1.75 1.75 0 0 1 3.5 0ZM5 14.5A2.5 2.5 0 0 1 7.5 12h2a2.5 2.5 0 0 1 2.5 2.5v.5a1 1 0 1 1-2 0v-.5a.5.5 0 0 0-.5-.5h-2a.5.5 0 0 0-.5.5v.5a1 1 0 1 1-2 0v-.5Zm8-3.5a1 1 0 0 1 1-1h2a1 1 0 1 1 0 2h-2a1 1 0 0 1-1-1Zm1 2a1 1 0 1 0 0 2h4a1 1 0 1 0 0-2h-4Z"/></g></svg>
